Newaita-dark/emblems/48/emblem-system.svg

<svg height="48" viewBox="0 0 48 48" width="48" xmlns="http://www.w3.org/2000/svg"><path d="m880.073484 255.093763c-44.405211 0-80.149831 35.74462-80.149831 79.992366v187.06876c-56.372572 19.840626-107.863721 49.916495-152.268931 87.865629l-92.589589-53.538197-69.284726-39.996183c-38.421529-22.04514-87.235768-8.975521-109.280908 29.288543l-79.992365 138.569452c-22.202606 38.42153-9.132987 87.235769 29.288543 109.280909l69.12726 39.996182h.157466l92.904518 53.695663c-5.196354 28.501217-8.030729 57.78976-8.030729 87.86563 0 29.918404 2.834375 59.206947 8.030729 87.708164l-92.904518 53.695662-69.284726 39.996183c-38.42153 22.202605-51.491149 70.859379-29.288543 109.280909l79.992365 138.569451c22.04514 38.42153 70.859379 51.333684 109.280908 29.288544l69.284726-39.996183 29.446009-17.006251 63.14358-36.531946c44.40521 37.949134 95.896359 68.025003 152.268931 87.865629v187.06876c0 44.247745 35.74462 79.992365 80.149831 79.992365h159.98473c44.247746 0 79.992366-35.74462 79.992366-79.992365v-187.06876c56.372572-19.840626 107.863721-49.916495 152.268931-87.865629l92.589589 53.538197 69.284725 39.996183c38.42153 22.04514 87.235769 9.132986 109.280909-29.288544l79.992365-138.569451c22.202606-38.42153 9.132987-87.078304-29.288543-109.280909l-69.127261-39.996183-93.061984-53.695662c5.35382-28.501217 8.03073-57.78976 8.03073-87.708164 0-30.07587-2.67691-59.364413-8.03073-87.86563l93.061984-53.695663 69.127261-39.996182c38.42153-22.04514 51.491149-70.859379 29.288543-109.280909l-79.992365-138.569452c-22.04514-38.264064-70.859379-51.333683-109.280909-29.288543l-69.284725 39.996183-29.446009 17.163716-63.14358 36.374481c-44.40521-37.949134-95.896359-68.025003-152.268931-87.865629v-187.06876c0-44.247746-35.74462-79.992366-79.992366-79.992366zm79.992365 399.961827c177.148447 0 319.969461 142.821014 319.969461 320.126927 0 177.148446-142.821014 319.969461-319.969461 319.969461-177.305912 0-320.126926-142.821015-320.126926-319.969461 0-177.305913 142.821014-320.126927 320.126926-320.126927zm0 0" fill="none" stroke="#424242" stroke-linejoin="round" stroke-width="309.921265" transform="scale(.0248071)"/><path d="m21.832031 6.328125c-1.101562 0-1.988281.886719-1.988281 1.984375v4.640625c-1.398438.492187-2.675781 1.238281-3.777344 2.179687l-2.296875-1.328124-1.71875-.992188c-.953125-.546875-2.164062-.222656-2.710937.726562l-1.984375 3.4375c-.550781.953126-.226563 2.164063.726562 2.710938l1.714844.992188h.003906l2.304688 1.332031c-.128907.707031-.199219 1.433593-.199219 2.179687 0 .742188.070312 1.46875.199219 2.175782l-2.304688 1.332031-1.71875.992187c-.953125.550782-1.277343 1.757813-.726562 2.710938l1.984375 3.4375c.546875.953125 1.757812 1.273437 2.710937.726562l1.71875-.992187.730469-.421875 1.566406-.90625c1.101563.941406 2.378906 1.6875 3.777344 2.179687v4.640625c0 1.097656.886719 1.984375 1.988281 1.984375h3.96875c1.097657 0 1.984375-.886719 1.984375-1.984375v-4.640625c1.398438-.492187 2.675782-1.238281 3.777344-2.179687l2.296875 1.328125 1.71875.992187c.953125.546875 2.164063.226563 2.710937-.726562l1.984376-3.4375c.550781-.953125.226562-2.160156-.726563-2.710938l-1.714844-.992187-2.308593-1.332031c.132812-.707032.199218-1.433594.199218-2.175782 0-.746094-.066406-1.472656-.199218-2.179687l2.308593-1.332031 1.714844-.992188c.953125-.546875 1.277344-1.757812.726563-2.710938l-1.984376-3.4375c-.546874-.949218-1.757812-1.273437-2.710937-.726562l-1.71875.992188-.730469.425781-1.566406.902343c-1.101562-.941406-2.378906-1.6875-3.777344-2.179687v-4.640625c0-1.097656-.886718-1.984375-1.984375-1.984375zm1.984375 9.921875c4.394532 0 7.9375 3.542969 7.9375 7.941406 0 4.394532-3.542968 7.9375-7.9375 7.9375-4.398437 0-7.941406-3.542968-7.941406-7.9375 0-4.398437 3.542969-7.941406 7.941406-7.941406zm0 0" fill="#fafafa"/></svg>

<?xml version="1.0" encoding="UTF-8"?>
<svg xmlns="http://www.w3.org/2000/svg" xmlns:xlink="http://www.w3.org/1999/xlink" width="48px" height="48px" viewBox="0 0 48 48" version="1.1">
<g id="surface1">
<path style="fill:none;stroke-width:309.921265;stroke-linecap:butt;stroke-linejoin:round;stroke:rgb(25.882354%,25.882354%,25.882354%);stroke-opacity:1;stroke-miterlimit:4;" d="M 880.073484 255.093763 C 835.668273 255.093763 799.923653 290.838383 799.923653 335.086129 L 799.923653 522.154889 C 743.551081 541.995515 692.059932 572.071384 647.654722 610.020518 L 555.065133 556.482321 L 485.780407 516.486138 C 447.358878 494.440998 398.544639 507.510617 376.499499 545.774681 L 296.507134 684.344133 C 274.304528 722.765663 287.374147 771.579902 325.795677 793.625042 L 394.922937 833.621224 C 395.080403 833.621224 395.080403 833.621224 395.080403 833.621224 L 487.984921 887.316887 C 482.788567 915.818104 479.954192 945.106647 479.954192 975.182517 C 479.954192 1005.100921 482.788567 1034.389464 487.984921 1062.890681 L 395.080403 1116.586343 L 325.795677 1156.582526 C 287.374147 1178.785131 274.304528 1227.441905 296.507134 1265.863435 L 376.499499 1404.432886 C 398.544639 1442.854416 447.358878 1455.76657 485.780407 1433.72143 L 555.065133 1393.725247 L 584.511142 1376.718996 L 647.654722 1340.18705 C 692.059932 1378.136184 743.551081 1408.212053 799.923653 1428.052679 L 799.923653 1615.121439 C 799.923653 1659.369184 835.668273 1695.113804 880.073484 1695.113804 L 1040.058214 1695.113804 C 1084.30596 1695.113804 1120.05058 1659.369184 1120.05058 1615.121439 L 1120.05058 1428.052679 C 1176.423152 1408.212053 1227.914301 1378.136184 1272.319511 1340.18705 L 1364.9091 1393.725247 L 1434.193825 1433.72143 C 1472.615355 1455.76657 1521.429594 1442.854416 1543.474734 1404.432886 L 1623.467099 1265.863435 C 1645.669705 1227.441905 1632.600086 1178.785131 1594.178556 1156.582526 L 1525.051295 1116.586343 L 1431.989311 1062.890681 C 1437.343131 1034.389464 1440.020041 1005.100921 1440.020041 975.182517 C 1440.020041 945.106647 1437.343131 915.818104 1431.989311 887.316887 L 1525.051295 833.621224 L 1594.178556 793.625042 C 1632.600086 771.579902 1645.669705 722.765663 1623.467099 684.344133 L 1543.474734 545.774681 C 1521.429594 507.510617 1472.615355 494.440998 1434.193825 516.486138 L 1364.9091 556.482321 L 1335.463091 573.646037 L 1272.319511 610.020518 C 1227.914301 572.071384 1176.423152 541.995515 1120.05058 522.154889 L 1120.05058 335.086129 C 1120.05058 290.838383 1084.30596 255.093763 1040.058214 255.093763 Z M 960.065849 655.05559 C 1137.214296 655.05559 1280.03531 797.876604 1280.03531 975.182517 C 1280.03531 1152.330963 1137.214296 1295.151978 960.065849 1295.151978 C 782.759937 1295.151978 639.938923 1152.330963 639.938923 975.182517 C 639.938923 797.876604 782.759937 655.05559 960.065849 655.05559 Z M 960.065849 655.05559 " transform="matrix(0.0248071,0,0,0.0248071,0,0)"/>
<path style=" stroke:none;fill-rule:nonzero;fill:rgb(98.039216%,98.039216%,98.039216%);fill-opacity:1;" d="M 21.832031 6.328125 C 20.730469 6.328125 19.84375 7.214844 19.84375 8.3125 L 19.84375 12.953125 C 18.445312 13.445312 17.167969 14.191406 16.066406 15.132812 L 13.769531 13.804688 L 12.050781 12.8125 C 11.097656 12.265625 9.886719 12.589844 9.339844 13.539062 L 7.355469 16.976562 C 6.804688 17.929688 7.128906 19.140625 8.082031 19.6875 L 9.796875 20.679688 C 9.800781 20.679688 9.800781 20.679688 9.800781 20.679688 L 12.105469 22.011719 C 11.976562 22.71875 11.90625 23.445312 11.90625 24.191406 C 11.90625 24.933594 11.976562 25.660156 12.105469 26.367188 L 9.800781 27.699219 L 8.082031 28.691406 C 7.128906 29.242188 6.804688 30.449219 7.355469 31.402344 L 9.339844 34.839844 C 9.886719 35.792969 11.097656 36.113281 12.050781 35.566406 L 13.769531 34.574219 L 14.5 34.152344 L 16.066406 33.246094 C 17.167969 34.1875 18.445312 34.933594 19.84375 35.425781 L 19.84375 40.066406 C 19.84375 41.164062 20.730469 42.050781 21.832031 42.050781 L 25.800781 42.050781 C 26.898438 42.050781 27.785156 41.164062 27.785156 40.066406 L 27.785156 35.425781 C 29.183594 34.933594 30.460938 34.1875 31.5625 33.246094 L 33.859375 34.574219 L 35.578125 35.566406 C 36.53125 36.113281 37.742188 35.792969 38.289062 34.839844 L 40.273438 31.402344 C 40.824219 30.449219 40.5 29.242188 39.546875 28.691406 L 37.832031 27.699219 L 35.523438 26.367188 C 35.65625 25.660156 35.722656 24.933594 35.722656 24.191406 C 35.722656 23.445312 35.65625 22.71875 35.523438 22.011719 L 37.832031 20.679688 L 39.546875 19.6875 C 40.5 19.140625 40.824219 17.929688 40.273438 16.976562 L 38.289062 13.539062 C 37.742188 12.589844 36.53125 12.265625 35.578125 12.8125 L 33.859375 13.804688 L 33.128906 14.230469 L 31.5625 15.132812 C 30.460938 14.191406 29.183594 13.445312 27.785156 12.953125 L 27.785156 8.3125 C 27.785156 7.214844 26.898438 6.328125 25.800781 6.328125 Z M 23.816406 16.25 C 28.210938 16.25 31.753906 19.792969 31.753906 24.191406 C 31.753906 28.585938 28.210938 32.128906 23.816406 32.128906 C 19.417969 32.128906 15.875 28.585938 15.875 24.191406 C 15.875 19.792969 19.417969 16.25 23.816406 16.25 Z M 23.816406 16.25 "/>
</g>
</svg>
